X: 34333
T: Return Of The Whistles, The
R: reel
M: 4/4
K: Dmajor
|:~F2DF A2FG-|GGEG B2GA-|AAFA d2fg-|ggfe dBAG|
~F2DF A2FG-|GGEG B2GA-|AAFA d2fg-|1 ggfe dBAG:|2 ggfe defg||
|:~a3g agfa|gBBA Bcdf|~g3f gfed|cdef efgb|
~a3g agfa|gBBA Bcdf|~g3f gfed|1 cdef defg:|2 cdef dBAG||

